X: 1
T: Clarinet Polka
C: K.Namyslowski
R: polka
Z: 2005 John Chambers <jc@trillian.mit.edu>
P: AABBACCA
M: 2/4
L: 1/16
K: F
| [f4A4] [f4A4] | [f4A4] zCB, ||
"A"\
|: A,CFA CFAc | A2A2 A2Ac \
|  A2Ac  A2Ac | cBGE C2DC \
|  B,CEG  CEGB | e2e2 e2dB \
|1,3 e2dB e2dB | dcAF C2CB, \
:|2,4 c2ed cBAG | F2F2 F2z2 :|
K: C
"B"\
|: G2^FG AGFG | EGce g4 \
|  egfe  dfed |1,3 ceed cBAG :|2,4 c2c2 c2z2 :|
K: B
"C"\
|: f4-   fdBG | F6 FE \
|  DFBF  DFBF | EFAF E2e2 \
|  e4-   ecAG | F6 F2 \
|1,3 A3E   A3E  | G2G2 F2f2 \
:|2,4 F2GF =EFGA | B2B2 B2z2 :|
